images/envelope_2.svg

<svg height="39.117" preserveAspectRatio="xMidYMid meet" viewBox="0 0 36.047 39.117" width="36.047" xmlns="http://www.w3.org/2000/svg"><g fill="#fff" transform="translate(-91.072 -57.796)"><path d="m127.119 72.835v24.078h-36.047v-24.078l18.028-15.035zm-35.456.8v22.274l12.291-11.7zm17.437-15.043-17.26 14.359 12.56 10.844 4.7-4.491 4.7 4.491 12.555-10.844zm-16.994 37.729h33.978l-16.984-16.221zm34.42-.412v-22.278l-12.29 10.578z"/><path d="m127.119 72.835v24.078h-36.047v-24.078l18.028-15.035zm-35.456.8v22.274l12.291-11.7zm17.437-15.043-17.26 14.359 12.56 10.844 4.7-4.491 4.7 4.491 12.555-10.844zm-16.994 37.729h33.978l-16.984-16.221zm34.42-.412v-22.278l-12.29 10.578z"/></g></svg>

<svg xmlns="http://www.w3.org/2000/svg" width="36.047" height="39.117" viewBox="0 0 36.047 39.117" preserveAspectRatio="xMidYMid meet">
  <g id="mail002_-_E02E" data-name="mail002 - E02E" transform="translate(-91.072 -57.796)" style="isolation: isolate">
    <g id="Group_664" data-name="Group 664" transform="translate(91.072 57.796)" style="isolation: isolate">
      <path id="Path_1555" data-name="Path 1555" d="M127.119,72.835V96.913H91.072V72.835L109.1,57.8Zm-35.456.8V95.909l12.291-11.7ZM109.1,58.592,91.84,72.951,104.4,83.795l4.7-4.491,4.7,4.491,12.555-10.844ZM92.106,96.321h33.978L109.1,80.1Zm34.42-.412V73.631L114.236,84.209Z" transform="translate(-91.072 -57.796)" fill="#fff"/>
    </g>
    <g id="Group_665" data-name="Group 665" transform="translate(91.072 57.796)" style="isolation: isolate">
      <path id="Path_1556" data-name="Path 1556" d="M127.119,72.835V96.913H91.072V72.835L109.1,57.8Zm-35.456.8V95.909l12.291-11.7ZM109.1,58.592,91.84,72.951,104.4,83.795l4.7-4.491,4.7,4.491,12.555-10.844ZM92.106,96.321h33.978L109.1,80.1Zm34.42-.412V73.631L114.236,84.209Z" transform="translate(-91.072 -57.796)" fill="#fff"/>
    </g>
  </g>
</svg>
